lib/flags/ec-ecuador.svg

<svg xmlns="http://www.w3.org/2000/svg" fill="none" aria-hidden="true" viewBox="0 0 42 30"><g id="Country=EC - Ecuador, Size=sm (36x24)" filter="url(#filter0_dd_91_28601)"><g clip-path="url(#clip0_91_28601)"><g id="flag"><mask id="mask0_91_28601" width="36" height="24" x="3" y="2" maskUnits="userSpaceOnUse" style="mask-type:alpha"><rect id="mask" width="36" height="24" x="3" y="2" fill="white"/></mask><g mask="url(#mask0_91_28601)"><g id="contents"><path id="background" fill="#2E42A5" fill-rule="evenodd" d="M3 2V26H39V2H3Z" clip-rule="evenodd"/><mask id="mask1_91_28601" width="36" height="24" x="3" y="2" maskUnits="userSpaceOnUse" style="mask-type:alpha"><path id="background_2" fill="white" fill-rule="evenodd" d="M3 2V26H39V2H3Z" clip-rule="evenodd"/></mask><g mask="url(#mask1_91_28601)"><path id="top" fill="#FECA00" fill-rule="evenodd" d="M3 2V14H39V2H3Z" clip-rule="evenodd"/><path id="bottom" fill="#E31D1C" fill-rule="evenodd" d="M3 20V26H39V20H3Z" clip-rule="evenodd"/><g id="mark"><path id="Path 434" fill="#7B2900" fill-rule="evenodd" d="M13.9316 7.71415C13.9316 7.71415 18.6074 5.83653 19.0324 6.04984C19.4574 6.26314 19.5599 6.87111 19.9268 6.87111C20.2938 6.87111 21.0323 6.679 21.3408 6.679C21.6492 6.679 21.954 6.87111 21.954 6.87111H23.271V6.22013L29.2427 7.71415C29.2427 7.71415 25.7597 8.11862 25.4972 8.11862C25.2347 8.11862 25.4972 8.45225 25.4972 8.45225C25.4972 8.45225 25.0005 8.11862 24.2442 8.11862C23.4878 8.11862 21.954 8.8132 21.954 8.8132L22.5115 9.87935L21.954 10.1929L21.3408 9.87935C21.3408 9.87935 21.3805 9.00259 21.1164 9.00259C20.8522 9.00259 20.6597 9.56584 20.6597 9.87935C20.6597 10.1929 19.9268 10.1929 19.9268 10.1929L20.2542 9.60594C20.2542 9.60594 20.5795 8.63291 19.9268 8.63291C19.2742 8.63291 16.2989 8.11862 16.2989 8.11862L15.5381 8.45225L15.8101 7.71415H13.9316Z" clip-rule="evenodd"/><g id="l"><path id="Combined Shape" fill="#E31D1C" fill-rule="evenodd" d="M15.9391 17.7741C15.2094 16.3162 15.9391 13.0864 15.9391 13.0864L17.3574 13.7475C17.1891 14.5013 17.1628 15.9257 17.6935 17.0907C18.2242 18.2556 20.2304 19.1731 20.2304 19.1731C20.2304 19.1731 21.2425 19.3737 19.7048 19.5182C18.167 19.6628 16.6689 19.232 15.9391 17.7741ZM19.5752 23.5167C19.1183 23.5167 20.489 20.8077 20.489 20.8077L20.9119 20.0551C20.9119 20.0551 20.9637 23.2439 20.6741 23.5167C20.4884 23.6915 20.2769 23.6422 20.0286 23.5842C19.8896 23.5518 19.7391 23.5167 19.5752 23.5167Z" clip-rule="evenodd"/><path id="Combined Shape_2" fill="#2E42A5" fill-rule="evenodd" d="M14.6177 17.2979C14.0063 15.1209 14.9601 12.1648 14.9601 12.1648L15.9201 12.7745C15.7791 13.9001 15.7791 16.811 16.5911 18.0722C17.4031 19.3334 20.9642 19.8633 20.9642 19.8633C20.9642 19.8633 20.2616 20.3249 18.9733 20.5408C17.685 20.7566 15.2291 19.4749 14.6177 17.2979ZM18.7002 23.217L19.265 21.4246L20.061 20.5587H20.6334C20.6334 20.5587 19.8276 23.6394 19.265 23.6394C18.8995 23.6394 19.0089 23.4611 19.1304 23.2631C19.1959 23.1563 19.265 23.0437 19.265 22.9503C19.265 22.6836 18.7002 23.217 18.7002 23.217Z" clip-rule="evenodd"/><path id="Combined Shape_3" fill="#FECA00" fill-rule="evenodd" d="M13.6851 17.6709C13.3817 15.7971 13.9885 11.3198 13.9885 11.3198L14.9484 11.9295C14.5146 13.014 14.6489 16.1259 14.9484 17.6709C15.248 19.2159 18.0823 20.1473 18.0823 20.1473C18.0823 20.1473 17.3797 20.609 16.0914 20.8248C14.8031 21.0407 13.9885 19.5447 13.6851 17.6709ZM18.3973 21.4154C17.8507 21.4154 18.6356 20.7188 18.6356 20.7188H19.9442C19.9442 20.7188 19.4965 21.7027 18.9439 21.7027C18.6668 21.7027 18.6676 21.6305 18.6684 21.5585C18.6691 21.4868 18.6699 21.4154 18.3973 21.4154Z" clip-rule="evenodd"/></g><g id="l_2"><path id="Combined Shape_4" fill="#E31D1C" fill-rule="evenodd" d="M25.911 17.7741C26.6408 16.3162 25.911 13.0864 25.911 13.0864L24.4927 13.7475C24.661 14.5013 24.6874 15.9257 24.1567 17.0907C23.6259 18.2556 21.6197 19.1731 21.6197 19.1731C21.6197 19.1731 20.6077 19.3737 22.1454 19.5182C23.6831 19.6628 25.1812 19.232 25.911 17.7741ZM22.275 23.5167C22.7319 23.5167 21.3612 20.8077 21.3612 20.8077L20.9382 20.0551C20.9382 20.0551 20.8865 23.2439 21.1761 23.5167C21.3618 23.6915 21.5733 23.6422 21.8216 23.5842C21.9605 23.5518 22.111 23.5167 22.275 23.5167Z" clip-rule="evenodd"/><path id="Combined Shape_5" fill="#2E42A5" fill-rule="evenodd" d="M27.2324 17.2979C27.8438 15.1209 26.89 12.1648 26.89 12.1648L25.93 12.7745C26.071 13.9001 26.071 16.811 25.259 18.0722C24.447 19.3334 20.8859 19.8633 20.8859 19.8633C20.8859 19.8633 21.5885 20.3249 22.8768 20.5408C24.1651 20.7566 26.621 19.4749 27.2324 17.2979ZM23.1499 23.217L22.5851 21.4246L21.789 20.5587H21.2166C21.2166 20.5587 22.0224 23.6394 22.5851 23.6394C22.9506 23.6394 22.8412 23.4611 22.7197 23.2631C22.6541 23.1563 22.5851 23.0437 22.5851 22.9503C22.5851 22.6836 23.1499 23.217 23.1499 23.217Z" clip-rule="evenodd"/><path id="Combined Shape_6" fill="#FECA00" fill-rule="evenodd" d="M28.1651 17.6709C28.4685 15.7971 27.8617 11.3198 27.8617 11.3198L26.9017 11.9295C27.3356 13.014 27.2012 16.1259 26.9017 17.6709C26.6022 19.2159 23.7679 20.1473 23.7679 20.1473C23.7679 20.1473 24.4705 20.609 25.7588 20.8248C27.0471 21.0407 27.8617 19.5447 28.1651 17.6709ZM23.4528 21.4154C23.9994 21.4154 23.2145 20.7188 23.2145 20.7188H21.906C21.906 20.7188 22.3537 21.7027 22.9063 21.7027C23.1833 21.7027 23.1826 21.6305 23.1818 21.5585C23.181 21.4868 23.1803 21.4154 23.4528 21.4154Z" clip-rule="evenodd"/></g><g id="grass"><path id="Path 441" fill="#6FAE21" d="M14.478 12.446L14.581 11.8936L16.3821 11.9972L15.016 10.7393L15.4762 10.3501L17.3239 12.0514L15.7443 9.41142L16.2903 9.12273L17.7285 11.0031L17.0425 9.04861L17.6323 8.84009L19.8437 12.7601L18.9954 12.7113L19.0785 12.9481L19.8007 13.1183L19.6361 13.6618L19.3013 13.5828L19.6141 14.4741L19.0707 13.7636L20.0168 15.3441L17.6922 13.2036L14.478 12.446Z"/><path id="Path 441_2" fill="#6FAE21" d="M27.667 12.446L27.564 11.8936L25.7629 11.9972L27.1291 10.7393L26.6688 10.3501L24.8212 12.0514L26.4008 9.41142L25.8547 9.12273L24.4166 11.0031L25.1025 9.04861L24.5127 8.84009L22.3013 12.7601L23.1497 12.7113L23.0665 12.9481L22.3443 13.1183L22.5089 13.6618L22.8438 13.5828L22.5309 14.4741L23.0743 13.7636L22.1282 15.3441L24.4529 13.2036L27.667 12.446Z"/></g><g id="spear"><path id="Path 439" fill="#171401" d="M15.4502 23.311L14.9863 22.9251L28.7005 10.0903L29.1643 10.4762L15.4502 23.311Z"/><path id="Path 440" fill="#CECECC" fill-rule="evenodd" d="M28.3521 10.1892L29.0552 10.7786L29.4515 9.8042L28.3521 10.1892Z" clip-rule="evenodd"/><path id="Path 440_2" fill="#CECECC" fill-rule="evenodd" d="M15.7987 23.3084L14.9911 22.8365L14.7295 23.8039L15.7987 23.3084Z" clip-rule="evenodd"/></g><g id="spear_2"><path id="Path 439_2" fill="#171401" d="M14.4302 21.3986L13.9663 21.0128L27.6805 8.17798L28.1443 8.56385L14.4302 21.3986Z"/><path id="Path 440_3" fill="#CECECC" fill-rule="evenodd" d="M27.332 8.27683L28.0352 8.86627L28.4315 7.89185L27.332 8.27683Z" clip-rule="evenodd"/><path id="Path 440_4" fill="#CECECC" fill-rule="evenodd" d="M14.7787 21.3961L13.9711 20.9241L13.7094 21.8916L14.7787 21.3961Z" clip-rule="evenodd"/></g><g id="spear_3"><path id="Path 439_3" fill="#171401" d="M26.9097 23.311L27.3735 22.9251L13.6594 10.0903L13.1955 10.4762L26.9097 23.311Z"/><path id="Path 440_5" fill="#CECECC" fill-rule="evenodd" d="M14.0078 10.1892L13.3047 10.7786L12.9083 9.8042L14.0078 10.1892Z" clip-rule="evenodd"/><path id="Path 440_6" fill="#CECECC" fill-rule="evenodd" d="M26.5611 23.3084L27.3688 22.8365L27.6304 23.8039L26.5611 23.3084Z" clip-rule="evenodd"/></g><g id="spear_4"><path id="Path 439_4" fill="#171401" d="M28.1851 21.8486L28.6489 21.4627L14.9348 8.62793L14.4709 9.0138L28.1851 21.8486Z"/><path id="Path 440_7" fill="#CECECC" fill-rule="evenodd" d="M15.2832 8.72678L14.58 9.31622L14.1837 8.3418L15.2832 8.72678Z" clip-rule="evenodd"/><path id="Path 440_8" fill="#CECECC" fill-rule="evenodd" d="M27.8365 21.846L28.6442 21.3741L28.9058 22.3415L27.8365 21.846Z" clip-rule="evenodd"/></g><rect id="Rectangle" width="5.1" height="2.25" x="18.375" y="18.375" fill="#B74E01"/><g id="inner"><path id="Oval" fill="#7DB8FF" stroke="#FECA00" stroke-width="0.5" d="M20.9414 19.2866C21.9242 19.2866 22.7896 18.7238 23.3993 17.8631C24.0094 17.0018 24.3789 15.8249 24.3789 14.5366C24.3789 13.2483 24.0094 12.0715 23.3993 11.2101C22.7896 10.3494 21.9242 9.78662 20.9414 9.78662C19.9586 9.78662 19.0932 10.3494 18.4835 11.2101C17.8734 12.0715 17.5039 13.2483 17.5039 14.5366C17.5039 15.8249 17.8734 17.0018 18.4835 17.8631C19.0932 18.7238 19.9586 19.2866 20.9414 19.2866Z"/><mask id="mask2_91_28601" width="8" height="11" x="17" y="9" maskUnits="userSpaceOnUse" style="mask-type:alpha"><path id="Oval_2" fill="white" stroke="white" stroke-width="0.5" d="M20.9414 19.2866C21.9242 19.2866 22.7896 18.7238 23.3993 17.8631C24.0094 17.0018 24.3789 15.8249 24.3789 14.5366C24.3789 13.2483 24.0094 12.0715 23.3993 11.2101C22.7896 10.3494 21.9242 9.78662 20.9414 9.78662C19.9586 9.78662 19.0932 10.3494 18.4835 11.2101C17.8734 12.0715 17.5039 13.2483 17.5039 14.5366C17.5039 15.8249 17.8734 17.0018 18.4835 17.8631C19.0932 18.7238 19.9586 19.2866 20.9414 19.2866Z"/></mask><g mask="url(#mask2_91_28601)"><path id="Path 442" fill="#6FAE21" fill-rule="evenodd" d="M17.4895 14.6097H19.3033C19.3033 14.6097 20.5501 14.8552 19.9267 15.0484C19.3033 15.2416 19.3033 15.3055 19.3033 15.5811C19.3033 15.8566 19.3033 16.8649 19.3033 17.0803C19.3033 17.2956 19.7468 17.7566 18.812 17.7566C17.8772 17.7566 17.0718 14.3406 17.0718 14.3406L17.4895 14.6097Z" clip-rule="evenodd"/><path id="Path 443" fill="#6FAE21" fill-rule="evenodd" d="M24.5766 14.7954C24.5766 14.7954 22.8917 15.0913 21.7375 14.9926C20.5832 14.894 20.0767 14.7954 20.0767 14.7954C20.0767 14.7954 20.8812 15.1674 21.1671 15.4791C21.453 15.7908 22.0384 16.3298 22.6352 16.3298C23.232 16.3298 24.1468 16.8329 24.1468 16.8329L24.5766 14.7954Z" clip-rule="evenodd"/><path id="Path 2" fill="#F7FCFF" fill-rule="evenodd" d="M17.9837 12.1355C17.9837 12.1355 19.3727 12.3741 19.7072 12.7314C20.0417 13.0887 19.2653 13.4459 21.2892 13.0887C23.313 12.7314 24.9195 12.1082 24.9195 13.0887C24.9195 14.0692 24.7427 14.9724 23.8718 14.9724C23.0009 14.9724 22.6535 14.9724 19.9974 14.9724C17.3414 14.9724 15.8935 15.6945 16.0794 14.5326C16.2654 13.3707 17.9837 12.1355 17.9837 12.1355Z" clip-rule="evenodd"/></g></g></g></g></g></g></g></g></g><defs><filter id="filter0_dd_91_28601" width="42" height="30" x="0" y="0" color-interpolation-filters="sRGB" filterUnits="userSpaceOnUse"><feFlood flood-opacity="0" result="BackgroundImageFix"/><feColorMatrix in="SourceAlpha" result="hardAlpha" values="0 0 0 0 0 0 0 0 0 0 0 0 0 0 0 0 0 0 127 0"/><feOffset dy="1"/><feGaussianBlur stdDeviation="1"/><feColorMatrix values="0 0 0 0 0.0627451 0 0 0 0 0.0941176 0 0 0 0 0.156863 0 0 0 0.06 0"/><feBlend in2="BackgroundImageFix" result="effect1_dropShadow_91_28601"/><feColorMatrix in="SourceAlpha" result="hardAlpha" values="0 0 0 0 0 0 0 0 0 0 0 0 0 0 0 0 0 0 127 0"/><feOffset dy="1"/><feGaussianBlur stdDeviation="1.5"/><feColorMatrix values="0 0 0 0 0.0627451 0 0 0 0 0.0941176 0 0 0 0 0.156863 0 0 0 0.1 0"/><feBlend in2="effect1_dropShadow_91_28601" result="effect2_dropShadow_91_28601"/><feBlend in="SourceGraphic" in2="effect2_dropShadow_91_28601" result="shape"/></filter><clipPath id="clip0_91_28601"><rect width="36" height="24" x="3" y="2" fill="white" rx="2"/></clipPath></defs></svg>

<svg xmlns="http://www.w3.org/2000/svg" fill="none" aria-hidden="true" viewBox="0 0 42 30"><g filter="url(#a)"><g clip-path="url(#b)"><mask id="c" width="36" height="24" x="3" y="2" maskUnits="userSpaceOnUse" style="mask-type:alpha"><path fill="#fff" d="M3 2h36v24H3z"/></mask><g mask="url(#c)"><path fill="#2E42A5" fill-rule="evenodd" d="M3 2v24h36V2H3Z" clip-rule="evenodd"/><mask id="d" width="36" height="24" x="3" y="2" maskUnits="userSpaceOnUse" style="mask-type:alpha"><path fill="#fff" fill-rule="evenodd" d="M3 2v24h36V2H3Z" clip-rule="evenodd"/></mask><g mask="url(#d)"><path fill="#FECA00" fill-rule="evenodd" d="M3 2v12h36V2H3Z" clip-rule="evenodd"/><path fill="#E31D1C" fill-rule="evenodd" d="M3 20v6h36v-6H3Z" clip-rule="evenodd"/><path fill="#7B2900" fill-rule="evenodd" d="M13.932 7.714s4.675-1.877 5.1-1.664c.425.213.528.821.895.821s1.105-.192 1.414-.192c.308 0 .613.192.613.192h1.317v-.65l5.972 1.493s-3.483.405-3.746.405c-.262 0 0 .333 0 .333S25 8.12 24.244 8.12c-.756 0-2.29.694-2.29.694l.558 1.066-.558.314-.613-.314s.04-.876-.225-.876c-.264 0-.456.563-.456.876 0 .314-.733.314-.733.314l.327-.587s.325-.973-.327-.973c-.653 0-3.628-.514-3.628-.514l-.76.333.271-.738h-1.878Z" clip-rule="evenodd"/><g fill-rule="evenodd" clip-rule="evenodd"><path fill="#E31D1C" d="M15.94 17.774c-.73-1.458 0-4.688 0-4.688l1.417.662c-.168.753-.194 2.178.337 3.343.53 1.165 2.536 2.082 2.536 2.082s1.012.2-.525.345c-1.538.145-3.036-.286-3.766-1.744Zm3.635 5.743c-.457 0 .914-2.71.914-2.71l.423-.752s.052 3.189-.238 3.462c-.186.175-.397.125-.645.067-.14-.032-.29-.067-.454-.067Z"/><path fill="#2E42A5" d="M14.618 17.298c-.612-2.177.342-5.133.342-5.133l.96.61c-.14 1.125-.14 4.036.671 5.297.812 1.261 4.373 1.791 4.373 1.791s-.702.462-1.99.678c-1.289.216-3.745-1.066-4.356-3.243Zm4.082 5.919.565-1.792.796-.866h.572s-.805 3.08-1.368 3.08c-.366 0-.256-.178-.135-.376.066-.107.135-.22.135-.313 0-.266-.565.267-.565.267Z"/><path fill="#FECA00" d="M13.685 17.67c-.303-1.873.303-6.35.303-6.35l.96.61c-.433 1.084-.3 4.196 0 5.74.3 1.546 3.134 2.477 3.134 2.477s-.702.462-1.99.678c-1.289.216-2.103-1.28-2.407-3.154Zm4.712 3.745c-.546 0 .239-.696.239-.696h1.308s-.447.984-1 .984c-.277 0-.276-.072-.276-.145.001-.071.002-.143-.27-.143Z"/></g><g fill-rule="evenodd" clip-rule="evenodd"><path fill="#E31D1C" d="M25.911 17.774c.73-1.458 0-4.688 0-4.688l-1.418.662c.168.753.194 2.178-.336 3.343-.531 1.165-2.537 2.082-2.537 2.082s-1.012.2.525.345c1.538.145 3.036-.286 3.766-1.744Zm-3.636 5.743c.457 0-.914-2.71-.914-2.71l-.423-.752s-.051 3.189.238 3.462c.186.175.397.125.646.067.139-.032.289-.067.453-.067Z"/><path fill="#2E42A5" d="M27.232 17.298c.612-2.177-.342-5.133-.342-5.133l-.96.61c.141 1.125.141 4.036-.671 5.297-.812 1.261-4.373 1.791-4.373 1.791s.703.462 1.99.678c1.29.216 3.745-1.066 4.356-3.243Zm-4.082 5.919-.565-1.792-.796-.866h-.572s.805 3.08 1.368 3.08c.366 0 .256-.178.135-.376-.066-.107-.135-.22-.135-.313 0-.266.565.267.565.267Z"/><path fill="#FECA00" d="M28.165 17.67c.303-1.873-.303-6.35-.303-6.35l-.96.61c.434 1.084.3 4.196 0 5.74-.3 1.546-3.134 2.477-3.134 2.477s.703.462 1.99.678c1.29.216 2.104-1.28 2.407-3.154Zm-4.712 3.745c.546 0-.238-.696-.238-.696h-1.309s.448.984 1 .984c.277 0 .277-.072.276-.145-.001-.071-.002-.143.27-.143Z"/></g><path fill="#6FAE21" d="m14.478 12.446.103-.552 1.801.103-1.366-1.258.46-.389 1.848 1.701-1.58-2.64.546-.288 1.439 1.88-.686-1.954.59-.209 2.21 3.92-.848-.049.083.237.723.17-.165.544-.335-.08.313.892-.543-.71.946 1.58-2.325-2.14-3.214-.758Zm13.189 0-.103-.552-1.801.103 1.366-1.258-.46-.389-1.848 1.701 1.58-2.64-.546-.288-1.438 1.88.685-1.954-.59-.209-2.21 3.92.848-.049-.083.237-.723.17.165.544.335-.08-.313.892.543-.71-.946 1.58 2.325-2.14 3.214-.758Z"/><path fill="#171401" d="m15.45 23.311-.464-.386L28.701 10.09l.463.386L15.45 23.311Z"/><path fill="#CECECC" fill-rule="evenodd" d="m28.352 10.19.703.589.396-.975-1.099.385ZM15.799 23.308l-.808-.471-.261.967 1.069-.496Z" clip-rule="evenodd"/><path fill="#171401" d="m14.43 21.399-.464-.386L27.68 8.178l.464.386L14.43 21.399Z"/><path fill="#CECECC" fill-rule="evenodd" d="m27.332 8.277.703.59.396-.975-1.099.385ZM14.779 21.396l-.808-.472-.262.968 1.07-.496Z" clip-rule="evenodd"/><path fill="#171401" d="m26.91 23.311.463-.386L13.66 10.09l-.464.386L26.91 23.311Z"/><path fill="#CECECC" fill-rule="evenodd" d="m14.008 10.19-.703.589-.397-.975 1.1.385Zm12.553 13.118.808-.471.261.967-1.069-.496Z" clip-rule="evenodd"/><path fill="#171401" d="m28.185 21.849.464-.386L14.935 8.628l-.464.386 13.714 12.835Z"/><path fill="#CECECC" fill-rule="evenodd" d="m15.283 8.727-.703.59-.396-.975 1.1.385Zm12.554 13.119.807-.472.262.968-1.07-.496Z" clip-rule="evenodd"/><path fill="#B74E01" d="M18.375 18.375h5.1v2.25h-5.1z"/><path fill="#7DB8FF" stroke="#FECA00" stroke-width=".5" d="M20.941 19.287c.983 0 1.849-.563 2.458-1.424.61-.861.98-2.038.98-3.326 0-1.289-.37-2.466-.98-3.327-.61-.86-1.475-1.423-2.458-1.423-.982 0-1.848.562-2.457 1.423-.61.861-.98 2.038-.98 3.327 0 1.288.37 2.465.98 3.326.61.86 1.475 1.424 2.457 1.424Z"/><mask id="e" width="8" height="11" x="17" y="9" maskUnits="userSpaceOnUse" style="mask-type:alpha"><path fill="#fff" stroke="#fff" stroke-width=".5" d="M20.941 19.287c.983 0 1.849-.563 2.458-1.424.61-.861.98-2.038.98-3.326 0-1.289-.37-2.466-.98-3.327-.61-.86-1.475-1.423-2.458-1.423-.982 0-1.848.562-2.457 1.423-.61.861-.98 2.038-.98 3.327 0 1.288.37 2.465.98 3.326.61.86 1.475 1.424 2.457 1.424Z"/></mask><g fill-rule="evenodd" clip-rule="evenodd" mask="url(#e)"><path fill="#6FAE21" d="M17.49 14.61h1.813s1.247.245.624.438c-.624.194-.624.258-.624.533v1.5c0 .215.444.676-.491.676s-1.74-3.416-1.74-3.416l.418.269Zm7.087.185s-1.685.296-2.84.198c-1.154-.099-1.66-.198-1.66-.198s.804.372 1.09.684c.286.312.871.85 1.468.85s1.512.504 1.512.504l.43-2.038Z"/><path fill="#F7FCFF" d="M17.984 12.136s1.389.238 1.723.595c.335.358-.442.715 1.582.358 2.024-.358 3.63-.98 3.63 0s-.176 1.883-1.047 1.883h-3.875c-2.656 0-4.104.723-3.918-.44.186-1.161 1.905-2.396 1.905-2.396Z"/></g></g></g></g></g><defs><clipPath id="b"><rect width="36" height="24" x="3" y="2" fill="#fff" rx="2"/></clipPath><filter id="a" width="42" height="30" x="0" y="0" color-interpolation-filters="sRGB" filterUnits="userSpaceOnUse"><feFlood flood-opacity="0" result="BackgroundImageFix"/><feColorMatrix in="SourceAlpha" result="hardAlpha" values="0 0 0 0 0 0 0 0 0 0 0 0 0 0 0 0 0 0 127 0"/><feOffset dy="1"/><feGaussianBlur stdDeviation="1"/><feColorMatrix values="0 0 0 0 0.0627451 0 0 0 0 0.0941176 0 0 0 0 0.156863 0 0 0 0.06 0"/><feBlend in2="BackgroundImageFix" result="effect1_dropShadow_91_28601"/><feColorMatrix in="SourceAlpha" result="hardAlpha" values="0 0 0 0 0 0 0 0 0 0 0 0 0 0 0 0 0 0 127 0"/><feOffset dy="1"/><feGaussianBlur stdDeviation="1.5"/><feColorMatrix values="0 0 0 0 0.0627451 0 0 0 0 0.0941176 0 0 0 0 0.156863 0 0 0 0.1 0"/><feBlend in2="effect1_dropShadow_91_28601" result="effect2_dropShadow_91_28601"/><feBlend in="SourceGraphic" in2="effect2_dropShadow_91_28601" result="shape"/></filter></defs></svg>
